src/assets/advantages/speaker-icon.svg

<svg width="52" height="52" viewBox="0 0 52 52" fill="none" xmlns="http://www.w3.org/2000/svg">
<path d="M39.7485 40.4963C44.1389 40.4963 47.6981 32.3311 47.6981 22.2589C47.6981 12.1867 44.1389 4.02148 39.7485 4.02148C35.358 4.02148 31.7988 12.1867 31.7988 22.2589C31.7988 32.3311 35.358 40.4963 39.7485 40.4963Z" stroke="#F2C247" stroke-linecap="round" stroke-linejoin="round"/>
<path d="M38.6578 4.3335L32.6916 8.15963C27.2629 11.6418 20.7807 13.1528 14.3513 12.4388C8.8363 12.4388 4.36523 16.858 4.36523 22.309C4.36523 27.76 8.8363 32.1791 14.3513 32.1791C20.6031 31.6454 26.8646 33.0947 32.2236 36.3184L38.6578 40.1848" stroke="#F2C247" stroke-linecap="round" stroke-linejoin="round"/>
<path d="M21.1982 32.079C20.4054 29.5723 19.9512 26.0069 19.9512 22.274C19.9512 20.3875 20.0668 18.5223 20.2918 16.8032" stroke="#F2C247" stroke-linecap="round" stroke-linejoin="round"/>
<path d="M37.1365 13.686C39.9029 14.9341 41.7739 18.388 41.7739 22.2507C41.7739 26.1134 39.8835 29.6012 37.0977 30.8323" stroke="#F2C247" stroke-linecap="round" stroke-linejoin="round"/>
<path d="M13.4062 36.7554L17.4678 45.9304C17.8502 46.7961 18.7111 47.3549 19.6585 47.3549H24.0447C24.6291 47.3549 25.0571 46.8057 24.9128 46.2398L22.5418 37.0024" stroke="#F2C247" stroke-linecap="round" stroke-linejoin="round"/>
</svg>

<svg xmlns="http://www.w3.org/2000/svg" width="52" height="52" fill="none" viewBox="0 0 52 52">
    <path stroke="#F2C247" stroke-linecap="round" stroke-linejoin="round" d="M39.748 40.496c4.39 0 7.95-8.165 7.95-18.237S44.138 4.02 39.748 4.02c-4.39 0-7.95 8.166-7.95 18.238s3.56 18.237 7.95 18.237Z"/>
    <path stroke="#F2C247" stroke-linecap="round" stroke-linejoin="round" d="M38.658 4.333 32.692 8.16a28.215 28.215 0 0 1-18.34 4.279c-5.516 0-9.987 4.419-9.987 9.87s4.471 9.87 9.986 9.87a29.773 29.773 0 0 1 17.873 4.14l6.434 3.866"/>
    <path stroke="#F2C247" stroke-linecap="round" stroke-linejoin="round" d="M21.198 32.079c-.793-2.507-1.247-6.072-1.247-9.805 0-1.887.116-3.752.34-5.47M37.136 13.686c2.767 1.248 4.638 4.702 4.638 8.565 0 3.862-1.89 7.35-4.676 8.581M13.406 36.755l4.062 9.175a2.396 2.396 0 0 0 2.19 1.425h4.387a.894.894 0 0 0 .868-1.115l-2.371-9.238"/>
</svg>
